src/objects/book-paper/1F4D3.svg

<svg id="emoji" viewBox="0 0 72 72" xmlns="http://www.w3.org/2000/svg">
  <g id="grid">
    <path fill="#b3b3b3" d="M68,4V68H4V4H68m4-4H0V72H72V0Z"/>
    <path fill="none" stroke="#00a5ff" stroke-miterlimit="10" stroke-width="0.1" d="M12.923,10.9583H59.0769A1.9231,1.9231,0,0,1,61,12.8814V59.0352a1.9231,1.9231,0,0,1-1.9231,1.9231H12.9231A1.9231,1.9231,0,0,1,11,59.0352V12.8813A1.923,1.923,0,0,1,12.923,10.9583Z"/>
    <rect x="16" y="4" rx="2.2537" width="40" height="64" fill="none" stroke="#00a5ff" stroke-miterlimit="10" stroke-width="0.1"/>
    <rect x="16" y="4" rx="2.2537" width="40" height="64" transform="translate(72) rotate(90)" fill="none" stroke="#00a5ff" stroke-miterlimit="10" stroke-width="0.1"/>
    <circle cx="36" cy="36" r="29" fill="none" stroke="#00a5ff" stroke-miterlimit="10" stroke-width="0.1"/>
  </g>
  <g id="color">
    <polygon fill="#FFFFFF" stroke="none" points="11,57.6968 60,57.6968 60,11.9092 15.9985,11.9092 11.9985,15.9092"/>
    <path fill="#9b9b9a" stroke="none" stroke-linecap="round" stroke-linejoin="round" stroke-miterlimit="10" stroke-width="2" d="M55.0015,60.9092h-43.003c-0.5514,0-0.9985-0.447-0.9985-0.9985v-43.003c0-0.5514,0.447-0.9985,0.9985-0.9985h43.003 c0.5514,0,0.9985,0.447,0.9985,0.9985v43.003C56,60.4621,55.553,60.9092,55.0015,60.9092z"/>
  </g>
  <g id="hair"/>
  <g id="skin"/>
  <g id="skin-shadow"/>
  <g id="line">
    <path fill="none" stroke="#000000" stroke-linecap="round" stroke-linejoin="round" stroke-miterlimit="10" stroke-width="2" d="M11,16.9092l4.9985-5h43.003c0.5514,0,0.9985,0.447,0.9985,0.9985v43.003c0,0.5514-0.447,0.9985-0.9985,0.9985"/>
    <path fill="none" stroke="#000000" stroke-linecap="round" stroke-linejoin="round" stroke-miterlimit="10" stroke-width="2" d="M55.0015,60.9092h-43.003c-0.5514,0-0.9985-0.447-0.9985-0.9985v-43.003c0-0.5514,0.447-0.9985,0.9985-0.9985h43.003 c0.5514,0,0.9985,0.447,0.9985,0.9985v43.003C56,60.4621,55.553,60.9092,55.0015,60.9092z"/>
    <polyline fill="none" stroke="#000000" stroke-linecap="round" stroke-linejoin="round" stroke-miterlimit="10" stroke-width="2" points="47.3583,29.7985 43.3583,29.7985 43.3583,36.7985 47.3583,36.7985"/>
    <line x1="43.3583" x2="46.3583" y1="33.2985" y2="33.2985" fill="none" stroke="#000000" stroke-linecap="round" stroke-linejoin="round" stroke-miterlimit="10" stroke-width="2"/>
    <polyline fill="none" stroke="#000000" stroke-linecap="round" stroke-linejoin="round" stroke-miterlimit="10" stroke-width="2" points="19.6417,36.7985 19.6417,29.7985 24.6417,36.7985 24.6417,29.7985"/>
    <path fill="none" stroke="#000000" stroke-linecap="round" stroke-linejoin="round" stroke-miterlimit="10" stroke-width="2" d="M30.8583,36.7985L30.8583,36.7985c-1.3807,0-2.5-1.1193-2.5-2.5v-2c0-1.3807,1.1193-2.5,2.5-2.5l0,0c1.3807,0,2.5,1.1193,2.5,2.5 v2C33.3583,35.6792,32.239,36.7985,30.8583,36.7985z"/>
    <line x1="36.3583" x2="40.3583" y1="29.8286" y2="29.8286" fill="none" stroke="#000000" stroke-linecap="round" stroke-linejoin="round" stroke-miterlimit="10" stroke-width="2"/>
    <line x1="38.3583" x2="38.3583" y1="29.8286" y2="36.8286" fill="none" stroke="#000000" stroke-linecap="round" stroke-linejoin="round" stroke-miterlimit="10" stroke-width="2"/>
  </g>
</svg>

<svg viewBox="0 0 72 72" xmlns="http://www.w3.org/2000/svg"><path fill="#b3b3b3" d="M68 4v64H4V4h64m4-4H0v72h72V0z"/><path fill="none" stroke="#00a5ff" stroke-miterlimit="10" stroke-width=".1" d="M12.923 10.958h46.154A1.923 1.923 0 0161 12.881v46.154a1.923 1.923 0 01-1.923 1.923H12.923A1.923 1.923 0 0111 59.035V12.881a1.923 1.923 0 011.923-1.923z"/><rect x="16" y="4" rx="2.254" width="40" height="64" fill="none" stroke="#00a5ff" stroke-miterlimit="10" stroke-width=".1"/><rect x="16" y="4" rx="2.254" width="40" height="64" transform="rotate(90 36 36)" fill="none" stroke="#00a5ff" stroke-miterlimit="10" stroke-width=".1"/><circle cx="36" cy="36" r="29" fill="none" stroke="#00a5ff" stroke-miterlimit="10" stroke-width=".1"/><g stroke-linecap="round" stroke-miterlimit="10" stroke-width="6" stroke="#fff" fill="none" stroke-linejoin="round"><path d="M11 16.91l4.998-5h43.004c.55 0 .998.446.998.998V55.91a.999.999 0 01-.999.998"/><path d="M55.002 60.91H11.998a.999.999 0 01-.998-1V16.909c0-.552.447-.999.999-.999H55c.552 0 .999.447.999.999V59.91a.999.999 0 01-.998.998z"/><path d="M47.358 29.799h-4v7h4m-4-3.501h3m-26.716 3.5v-7l5 7v-7m6.216 7h0a2.5 2.5 0 01-2.5-2.5v-2a2.5 2.5 0 012.5-2.5h0a2.5 2.5 0 012.5 2.5v2a2.5 2.5 0 01-2.5 2.5zm5.5-6.969h4m-2 0v7"/></g><path fill="#FFF" d="M11 57.697h49V11.909H15.998l-4 4z"/><path fill="#9b9b9a" d="M55.002 60.91H11.998a.999.999 0 01-.998-1V16.909c0-.552.447-.999.999-.999H55c.552 0 .999.447.999.999V59.91a.999.999 0 01-.998.998z"/><g fill="none" stroke="#000" stroke-linecap="round" stroke-linejoin="round" stroke-miterlimit="10" stroke-width="2"><path d="M11 16.91l4.998-5h43.004c.55 0 .998.446.998.998V55.91a.999.999 0 01-.999.998"/><path d="M55.002 60.91H11.998a.999.999 0 01-.998-1V16.909c0-.552.447-.999.999-.999H55c.552 0 .999.447.999.999V59.91a.999.999 0 01-.998.998z"/><path d="M47.358 29.799h-4v7h4m-4-3.501h3m-26.716 3.5v-7l5 7v-7m6.216 7h0a2.5 2.5 0 01-2.5-2.5v-2a2.5 2.5 0 012.5-2.5h0a2.5 2.5 0 012.5 2.5v2a2.5 2.5 0 01-2.5 2.5zm5.5-6.969h4m-2 0v7"/></g></svg>
